svg/Pictogram/pictograms-aem-0015-rotating_shaft.svg

<svg viewBox="0 0 304.01 304.01"><g transform="matrix(1.35328 0 0 1.35328-53.21-52.19)" fill-rule="evenodd"><path d="m246.19 177.42v2.5h-6.309v5.407h6.309v2.304h7.406v-10.214h-7.406"/><path d="m92.19 176.29l-4.878-7.153c.089.133-.332-3.508-2.036-6.5-1.351-2.367-3.929-4.02-3.929-4.02l-1.735-2.953-9.187 5.414 1.668 2.836-8.305 1.019-13.371 7.875c1.766 2.996 4.508 3.078 8.629 1.406 6.375-2.582 13.805-.16 13.851.379l1.055 1.676 18.235.02"/><path d="m198.78 163.53c8.129 0 14.719-6.59 14.719-14.719 0-8.129-6.59-14.715-14.719-14.715-8.129 0-14.715 6.586-14.715 14.715 0 8.129 6.586 14.719 14.715 14.719"/><path d="m244.78 190.78h-9.808v-4.098l-15.789.035 2.523 2.52 5.434-.035-3.844 8.722c-.012.032-.028.059-.039.09l-.262.594c-2.105 4.137-7.168 5.789-11.309 3.683-1.191-.605-2.168-1.46-2.918-2.464l-13.597-13.391-10.477 13.473c-1.562 2.199-3.789 3.32-6.687 3.25l-25.692-.008c-1.925 0-3.691-.656-5.105-1.746l-13.758-8.512-4.879 6.383c-1.535 2-3.687 3.676-6.406 3.676h-27.12c-2.903 0-5.03-1.219-6.473-3.457l-6.469-10.305 18.848-.008 1.859-2.5h-50.761l.601-7.808h55.965l1.902-2.555-11.468-.039-4.289-11.727c-.008-.019-2.399-2.797-3.442-6.078-.828-2.601-.293-5.613-.293-5.613l-.992-3.278 10.207-3.086.953 3.153 6.379-5.418 14.856-4.488c1 3.324-.793 5.394-4.817 7.293-6.219 2.937-9.137 11.16-8.797 12.281l4.91 12.847 7.243-9.605c1.527-2.078 3.894-3.059 6.671-3.059 1.606 0 3.067.317 4.344 1.102l10.199 6.094 14.661 8.644 8.589-11.215-13.859-13.468c-.559-.524-1.019-1.114-1.398-1.735l-9.364-10.859c-1.039-1.109-2.222-2.035-3.132-3.086l-6.05-6.547c-.477-.516-.942-.891-1.207-1.101-.242-.196-.598-.375-1.02-.5l-14.496-.692c-.824.035-1.523-.605-1.559-1.43-.031-.828.61-1.523 1.43-1.558l9.781.324c.297-.012.528-.262.516-.559-.012-.296-.262-.527-.559-.515l-12.835-3.199c-.825-.059-1.442-.774-1.383-1.598.054-.82.769-1.441 1.593-1.387l13.12 2.606c.289.047.566-.149.617-.442.051-.293-.149-.57-.438-.621l-13.718-5.211c-.778-.273-1.188-1.129-.911-1.906.274-.777 1.125-1.187 1.907-.914l13.273 4.387c.281.09.586-.063.676-.344.094-.285-.063-.586-.344-.68l-9.543-6.03c-.781-.262-1.203-1.109-.945-1.891.262-.781 1.109-1.207 1.891-.945 0 0 15.06 9.184 15.402 9.34.531.238 1.222.152 1.613-.203.453-.414.758-1.301.297-2.168 0 0-2.559-4.742-2.934-5.563-.535-1.172-.675-3.336 1.77-4.8l8.668 17.394 9.469 9.731 10.613 10.382 19.11 17.957c2.836 6.508 9.344 11.05 16.895 11.05.09 0 .199 0 .289 0 .078.043.164.098.238.149 1.078.414 2.094 1.054 2.957 1.933l9.481 9.465 23.629-.019v-4.207h9.812v2.91h-6.808v10.308h6.808v2.899h-.004m-108.57-1.656h10.293l9.652-12.856h-9.988l-9.957 12.856m11.168-10.254h3.629l-5.961 7.804h-3.602l5.934-7.804"/><path d="m232.77 176.12l1.75-3.739c.304-.633.644-1.125.835-1.406.176-.258.465-.527.836-.77l13.688-4.832c.797-.207 1.281-1.019 1.078-1.82-.207-.797-1.019-1.281-1.82-1.074l-9.274 3.117c-.289.074-.582-.098-.656-.383-.07-.289.102-.582.387-.656l11.375-6.758c.773-.293 1.16-1.152.867-1.926-.289-.769-1.152-1.16-1.926-.867l-11.812 6.262c-.266.133-.59.023-.719-.242-.133-.266-.024-.586.242-.719l11.637-8.937c.668-.489.812-1.422.328-2.09-.488-.668-1.422-.813-2.09-.328l-11.453 8.02c-.242.172-.578.109-.746-.137-.168-.242-.109-.578.137-.746l7.402-8.519c.676-.477.836-1.41.363-2.082-.476-.676-1.41-.836-2.082-.364 0 0-11.785 13.12-12.07 13.371-.442.387-1.125.5-1.602.274-.554-.266-1.101-1.027-.91-1.992 0 0 1.09-5.278 1.211-6.172.176-1.277-.312-3.387-3.074-4.09l-3.156 19.11-5.485 10.508 16.735-.011"/></g></svg>

<?xml version="1.0" encoding="ISO-8859-1" standalone="yes"?>
<svg height="304.014" width="304.015">
  <metadata>
    <rdf:RDF xmlns:cc="http://web.resource.org/cc/" xmlns:dc="http://purl.org/dc/elements/1.1/" xmlns:rdf="http://www.w3.org/1999/02/22-rdf-syntax-ns#">
      <cc:Work rdf:about="">
        <dc:title></dc:title>
        <dc:description></dc:description>
        <dc:subject>
          <rdf:Bag>
            <rdf:li></rdf:li>
          </rdf:Bag>
        </dc:subject>
        <dc:publisher>
          <cc:Agent rdf:about="http://www.unece.org/trans/danger/publi/ghs/pictograms.html">
            <dc:title>Source: UNECE GHS of Classification and Labeling of Chemicals, Source: AEM Pictorial Database, Source: AEM Pictorial Database, Source: AEM Pictorial Database, Source: AEM Pictorial Database</dc:title>
          </cc:Agent>
        </dc:publisher>
        <dc:creator>
          <cc:Agent>
            <dc:title></dc:title>
          </cc:Agent>
        </dc:creator>
        <dc:rights>
          <cc:Agent>
            <dc:title></dc:title>
          </cc:Agent>
        </dc:rights>
        <dc:date></dc:date>
        <dc:format>image/svg+xml</dc:format>
        <dc:type rdf:resource="http://purl.org/dc/dcmitype/StillImage"/>
        <cc:license rdf:resource="http://en.wikipedia.org/wiki/Public_domain"/>
        <dc:language>en</dc:language>
      </cc:Work>
    </rdf:RDF>
  </metadata>
  <defs><marker id="ArrowEnd" markerHeight="3" markerUnits="strokeWidth" markerWidth="4" orient="auto" refX="0" refY="5" viewBox="0 0 10 10"><path d="M 0 0 L 10 5 L 0 10 z"/></marker><marker id="ArrowStart" markerHeight="3" markerUnits="strokeWidth" markerWidth="4" orient="auto" refX="10" refY="5" viewBox="0 0 10 10"><path d="M 10 0 L 0 5 L 10 10 z"/></marker> </defs>
  <g id="g2958" transform="matrix(1.3532768,0,0,1.3532781,-53.207834,-52.192858)">
    <path d="M 246.187 177.416L 246.187 179.916L 239.878 179.916L 239.878 185.323L 246.187 185.323L 246.187 187.627L 253.593 187.627L 253.593 177.413L 246.187 177.413" style="stroke:none; fill-rule:evenodd; fill:#000000"/>
    <path d="M 92.1904 176.288L 87.3124 169.135C 87.4014 169.268 86.9804 165.627 85.2764 162.635C 83.9254 160.268 81.3474 158.616 81.3474 158.616L 79.6124 155.663L 70.4254 161.077L 72.0934 163.913L 63.7884 164.932L 50.4174 172.807C 52.1834 175.803 54.9254 175.885 59.0464 174.213C 65.4214 171.631 72.8514 174.053 72.8974 174.592L 73.9524 176.268L 92.1874 176.288" style="stroke:none; fill-rule:evenodd; fill:#000000"/>
    <path d="M 198.784 163.53C 206.913 163.53 213.503 156.94 213.503 148.811C 213.503 140.682 206.913 134.096 198.784 134.096C 190.655 134.096 184.069 140.682 184.069 148.811C 184.069 156.94 190.655 163.53 198.784 163.53" style="stroke:none; fill-rule:evenodd; fill:#000000"/>
    <path d="M 244.784 190.78L 234.976 190.78L 234.976 186.682L 219.187 186.717L 221.71 189.237L 227.144 189.202L 223.3 197.924C 223.288 197.956 223.272 197.983 223.261 198.014L 222.999 198.608C 220.894 202.745 215.831 204.397 211.69 202.291C 210.499 201.686 209.522 200.831 208.772 199.827L 195.175 186.436L 184.698 199.909C 183.136 202.108 180.909 203.229 178.011 203.159L 152.319 203.151C 150.394 203.151 148.628 202.495 147.214 201.405L 133.456 192.893L 128.577 199.276C 127.042 201.28 124.89 202.952 122.171 202.952L 95.0544 202.952C 92.1514 202.952 90.0264 201.733 88.5814 199.495L 82.1124 189.19L 100.96 189.182L 102.819 186.682L 52.0584 186.682L 52.6594 178.874L 108.624 178.874L 110.526 176.319L 99.0584 176.28L 94.7694 164.553C 94.7614 164.534 92.3704 161.756 91.3274 158.475C 90.4994 155.874 91.0344 152.862 91.0344 152.862L 90.0424 149.584L 100.249 146.498L 101.202 149.651L 107.581 144.233L 122.437 139.745C 123.44 143.069 121.644 145.139 117.62 147.038C 111.401 149.975 108.483 158.198 108.823 159.319L 113.733 172.166L 120.976 162.561C 122.503 160.483 124.87 159.502 127.647 159.502C 129.253 159.502 130.714 159.819 131.991 160.604L 142.19 166.698L 156.851 175.342L 165.44 164.127L 151.581 150.659C 151.022 150.135 150.562 149.545 150.183 148.924L 140.819 138.065C 139.78 136.956 138.597 136.03 137.687 134.979L 131.636 128.432C 131.159 127.916 130.694 127.541 130.429 127.331C 130.187 127.135 129.831 126.956 129.409 126.831L 114.913 126.139C 114.089 126.174 113.39 125.534 113.354 124.709C 113.323 123.881 113.964 123.186 114.784 123.151L 124.565 123.475C 124.862 123.463 125.093 123.213 125.081 122.916C 125.069 122.62 124.819 122.389 124.522 122.401L 111.687 119.202C 110.862 119.143 110.245 118.428 110.304 117.604C 110.358 116.784 111.073 116.163 111.897 116.217L 125.015 118.823C 125.304 118.87 125.581 118.674 125.632 118.381C 125.683 118.088 125.483 117.811 125.194 117.76L 111.476 112.549C 110.698 112.276 110.288 111.42 110.565 110.643C 110.839 109.866 111.69 109.456 112.472 109.729L 125.745 114.116C 126.026 114.206 126.331 114.053 126.421 113.772C 126.515 113.487 126.358 113.186 126.077 113.092L 116.534 107.061C 115.753 106.799 115.331 105.952 115.589 105.17C 115.851 104.389 116.698 103.963 117.48 104.225C 117.48 104.225 132.538 113.409 132.882 113.565C 133.413 113.803 134.104 113.717 134.495 113.362C 134.948 112.948 135.253 112.061 134.792 111.194C 134.792 111.194 132.233 106.452 131.858 105.631C 131.323 104.459 131.183 102.295 133.628 100.831L 142.296 118.225L 151.765 127.956L 162.378 138.338L 181.487 156.295C 184.323 162.803 190.831 167.342 198.382 167.342C 198.472 167.342 198.581 167.342 198.671 167.342C 198.749 167.385 198.835 167.44 198.909 167.491C 199.987 167.905 201.003 168.545 201.866 169.424L 211.347 178.889L 234.976 178.87L 234.976 174.663L 244.788 174.663L 244.788 177.573L 237.98 177.573L 237.98 187.881L 244.788 187.881L 244.788 190.78L 244.784 190.78zM 136.214 189.124L 146.507 189.124L 156.159 176.268L 146.171 176.268L 136.214 189.124zM 147.382 178.87L 151.011 178.87L 145.05 186.674L 141.448 186.674L 147.382 178.87" style="stroke:none; fill-rule:evenodd; fill:#000000"/>
    <path d="M 232.769 176.124L 234.519 172.385C 234.823 171.752 235.163 171.26 235.354 170.979C 235.53 170.721 235.819 170.452 236.19 170.209L 249.878 165.377C 250.675 165.17 251.159 164.358 250.956 163.557C 250.749 162.76 249.937 162.276 249.136 162.483L 239.862 165.6C 239.573 165.674 239.28 165.502 239.206 165.217C 239.136 164.928 239.308 164.635 239.593 164.561L 250.968 157.803C 251.741 157.51 252.128 156.651 251.835 155.877C 251.546 155.108 250.683 154.717 249.909 155.01L 238.097 161.272C 237.831 161.405 237.507 161.295 237.378 161.03C 237.245 160.764 237.354 160.444 237.62 160.311L 249.257 151.374C 249.925 150.885 250.069 149.952 249.585 149.284C 249.097 148.616 248.163 148.471 247.495 148.956L 236.042 156.975C 235.8 157.147 235.464 157.084 235.296 156.838C 235.128 156.596 235.187 156.26 235.433 156.092L 242.835 147.573C 243.511 147.096 243.671 146.163 243.198 145.491C 242.722 144.815 241.788 144.655 241.116 145.127C 241.116 145.127 229.331 158.252 229.05 158.498C 228.608 158.885 227.925 158.998 227.448 158.772C 226.894 158.506 226.347 157.745 226.538 156.78C 226.538 156.78 227.628 151.502 227.749 150.608C 227.925 149.331 227.437 147.221 224.675 146.518L 221.519 165.627L 216.034 176.135L 232.769 176.124" style="stroke:none; fill-rule:evenodd; fill:#000000"/>
    <path d="M 29.6204 265.393L 2.62042 265.393" style="stroke:#000000; stroke-width:0.5; fill:none"/>
    <path d="M 38.6204 274.393L 38.6204 301.393" style="stroke:#000000; stroke-width:0.5; fill:none"/>
    <path d="M 29.6204 38.6204L 2.62042 38.6204" style="stroke:#000000; stroke-width:0.5; fill:none"/>
    <path d="M 38.6204 29.6204L 38.6204 2.62042" style="stroke:#000000; stroke-width:0.5; fill:none"/>
    <path d="M 274.394 38.6204L 301.394 38.6204" style="stroke:#000000; stroke-width:0.5; fill:none"/>
    <path d="M 265.394 29.6204L 265.394 2.62042" style="stroke:#000000; stroke-width:0.5; fill:none"/>
    <path d="M 274.394 265.393L 301.394 265.393" style="stroke:#000000; stroke-width:0.5; fill:none"/>
    <path d="M 265.394 274.393L 265.394 301.393" style="stroke:#000000; stroke-width:0.5; fill:none"/>
  </g>
</svg>
